X: 238
T: Bekledim Yıllarca Lâkin Gelmedin
C: Râkım Elkutlu
O: Turkey
F: http://compmusic.upf.edu/node/140
N: huzzam--sarki--agiraksak--bekledim_yillarca--rakim_elkutlu
N: makam= huzzam
N: form= sarki
N: usul= agiraksak = 9/4
M: 9/4
L: 1/16
K: C _1/4B _3/4e ^3/4f 
Q: 1/4=60
%%MIDI tuningsystem comma53
z8-z2B4g2 f2g2 f2e2 f2g2 f2e2 f2g_b  | \
w:  Bek le dim  *  *  *  yıl  | 
agfe dcd4d4d2 d2(3gfe dccB B6^3/4AG d2cB  | 
w:  *  *  *  *  *  *  *  lar ca  lâ *  *  *  *  *  *  *  kin   | 
B3_1/4e dcBc d2df _3/4e2d2 {e}^c8 d4 e4 f4  | \
w:  *  SAZ *  *  *  *  *  gel *  me *  *  din  ey   | 
g2ag fedc d2d4B2 c2d2 e2ed d6fe dcBc  | 
w:  *  *  *  *  *  *  *  *  naz *  *  *  *  lı  *  yâr   SAZ  | 
d3/2c/de fgab c'2c'2 _b2a2 {b}ag2{a}f edc2 g8 fga_2/4b  | 
w:  *  *  *  *  *  *  *  *  *  Sen *  de  *  Ley *  *  *  *  *  *  lâ   | 
c'd'c'_b agf^e f2f4f2 {a}g3f _3/4e2d2 {f}e6d2 c'4  | \
w:  *  *  *  *  *  *  *  *  *  ben de  *  Mec *  *  *  *  nûn   | 
c'_bag fedc d2d3ccB B8 (3c'2_1/4b2c'2 (3_b2a2b2 (3a2g2a2  | 
w:  *  *  *  *  *  *  *  *  *  ol *  mak  *  is ti  | 
(3g2f2g2 feed d2d4B2 c2d2 e2dc B6fe dcBc  | 
w:  *  *  *  *  *  *  *  *  dâ *  *  *  *  dı  *  var   SAZ  | 
d3/2c/de fgab c'2c'2 _b2a2 {b}ag2{a}f edc2 g8 fga_2/4b  | 
w:  *  *  *  *  *  *  *  *  *  Sen *  de  *  Ley *  *  *  *  *  *  lâ   | 
c'd'c'_b agf^e f2f4f2 {a}g3f _3/4e2d2 {f}e6d2 c'4  | \
w:  *  *  *  *  *  *  *  *  *  ben de  *  Mec *  *  *  *  nûn   | 
c'_bag fedc d2d3ccB B8 (3c'2_1/4b2c'2 (3_b2a2b2 (3a2g2a2  | 
w:  *  *  *  *  *  *  *  *  *  ol *  mak  *  is ti  | 
(3g2f2g2 feed d2d4B2 c2d2 e2dc B6bc' b^aga  | 
w:  *  *  *  *  *  *  *  *  dâ *  *  *  *  dı  *  var   SAZ  | 
b3c' b^ab2 z2g4a2 b6ag g2f2 _1/4e4 ^d2e2  | \
w:  *  *  *  *  *  Gel me sin  *  *  ey  | 
=f4 _1/4e2d2 d2d4d2 d2(3g^3/4f_3/4e dccB B6^AG d2cB  | 
w:  *  *  *  *  yâm_ ı  hâ *  *  *  *  *  *  *  rın   | 
B3_1/4e dcBc d2df _3/4e2d2 {e}^c8 d4 e4 f4  | \
w:  *  SAZ *  *  *  *  *  bit *  me *  *  sin  ar  | 
g2ag fedc d2d4B2 c2d2 e2ed d6fe dcBc  | 
w:  *  *  *  *  *  *  *  *  tık  *  *  *  *  ba *  har   SAZ  | 
d3/2c/de fgab c'2c'2 _b2a2 {b}ag2{a}f edc2 g8 fga_2/4b  | 
w:  *  *  *  *  *  *  *  *  *  Sen *  de  *  Ley *  *  *  *  *  *  lâ   | 
c'd'c'_b agf^e f2f4f2 {a}g3f _3/4e2d2 {f}e6d2 c'4  | \
w:  *  *  *  *  *  *  *  *  *  ben de  *  Mec *  *  *  *  nûn   | 
c'_bag fedc d2d3ccB B8 (3c'2_1/4b2c'2 (3_b2a2b2 (3a2g2a2  | 
w:  *  *  *  *  *  *  *  *  *  ol *  mak  *  is ti  | 
(3g2f2g2 feed d2d4B2 c2d2 e2dc B6fe dcBc  | 
w:  *  *  *  *  *  *  *  *  dâ *  *  *  *  dı  *  var   SAZ  | 
d3/2c/de fgab c'2c'2 _b2a2 {b}ag2{a}f edc2 g8 fga_2/4b  | 
w:  *  *  *  *  *  *  *  *  *  Sen *  de  *  Ley *  *  *  *  *  *  lâ   | 
c'd'c'_b agf^e f2f4f2 {a}g3f _3/4e2d2 {f}e6d2 c'4  | \
w:  *  *  *  *  *  *  *  *  *  ben de  *  Mec *  *  *  *  nûn   | 
c'_bag fedc d2d3ccB B8 (3c'2_1/4b2c'2 (3_b2a2b2 (3a2g2a2  | 
w:  *  *  *  *  *  *  *  *  *  ol *  mak  *  is ti  | 
(3g2f2g2 feed d2d4B2 c2d2 e2dc B6|
w:  *  *  *  *  *  *  *  *  dâ *  *  *  *  dı  *  var    | 


